X:173
%%etbk:tnset id:56,pos:4,rep:3x,ant:
%%etbk:tnset id:264,pos:2,rep:4x,ant:
%%etbk:tnset id:265,pos:4,rep:3x,ant:Spezial-Schluss
%%etbk:wsite http://www.thesession.org/tunes/display/222
%%etbk:pldat 2016-06-23T19:13,2016-06-22T15:24,2016-06-20T18:09,2016-06-18T15:44,2016-05-05T14:13,2016-05-05T11:51,2016-05-04T15:00,2016-05-03T16:55,2016-05-03T16:02,2016-05-02T18:35,2016-04-09T15:20,2016-04-08T18:45,2016-04-07T16:10,2016-04-05T16:04,2016-04-02T14:17,2016-03-31T15:56,2016-03-30T16:33,2016-03-28T15:00,2016-03-11T16:15,2016-03-09T17:41,2016-03-08T15:34,2016-03-05T14:06,2016-02-16T17:28,2015-12-11T17:56,2015-12-10T18:42,2015-12-10T17:54,2015-12-09T15:34,2015-12-08T15:04,2015-12-07T18:20,2015-12-06T13:49,2015-12-03T18:37,2015-12-02T16:31,2015-12-01T15:51,2015-11-04T16:28,2015-11-04T16:21,2015-11-03T17:23,2015-11-02T18:02,2015-10-29T18:39,2015-10-28T15:26,2015-10-27T17:05,2015-10-25T14:17,2015-10-21T16:43,2015-10-14T17:51,2015-10-08T18:50,2015-10-06T15:21,2015-10-05T18:22,2015-09-30T16:09,2015-09-09T17:28,2015-09-09T17:21,2015-09-06T15:05,2015-06-26T17:26,2015-06-23T18:11,2015-06-22T18:01,2015-05-28T18:59,2015-04-22T16:45,2015-03-12T18:32,2015-03-09T19:04,2015-03-04T17:57,2015-02-17T18:13,2015-02-14T12:48,2015-01-29T18:16,2014-11-05T19:06,2014-11-04T16:53,2014-11-02T14:03,2014-10-30T18:45,2014-10-29T15:30,2014-10-28T17:07,2014-10-27T18:50,2014-10-19T15:11,2014-10-13T18:40,2014-09-04T18:36,2014-09-03T18:49,2014-09-02T18:39,2014-09-01T18:43,2014-08-31T14:00,2014-08-28T18:39,2014-08-27T19:00,2014-08-26T16:51,2014-08-24T11:57,2014-08-21T18:41,2014-08-20T18:15,2014-08-18T18:10,2014-08-03T15:03,2014-07-31T18:10,2014-07-23T18:08,2014-07-02T10:27,2014-06-25T15:34,2014-06-24T18:47,2014-06-11T16:29,2014-06-05T18:07,2014-03-05T19:21,2014-03-02T16:46,2014-02-24T18:03,2014-02-18T17:16,2014-01-22T15:39,2014-01-21T16:45,2014-01-20T18:19,2014-01-19T13:09,2014-01-18T13:50,2014-01-17T17:55,2014-01-15T15:51,2014-01-12T13:36,2014-01-09T18:05,2014-01-07T15:38,2014-01-06T18:52,2013-10-30T16:08,2013-10-29T15:25,2013-10-28T18:59,2013-10-23T18:11,2013-10-17T19:10,2013-10-17T18:50,2013-10-14T18:01,2013-10-13T16:05,2013-10-09T15:50,2013-10-09T15:30,2013-10-04T15:58,2013-09-12T17:53,2013-09-11T19:13,2013-08-29T16:14
T: Man Of The House, The
Z: Piano Box Version by Martin Fleischmann
H: Created 2013-02-19 /  Last Modified 2013-10-09
M: 4/4
L: 1/8
R: reel
K: Edor
|: "em"!1!E2!5!BE !3!GABG | !1!E2BE "D"!2!FD!4!A!2!F | "em"!1!E2!5!BE !3!G!4!A!2!Bc |1 "bm"!4!d!2!B{d}B!1!A "em"!5!B!1!EE!2!D:|2 "bm"!4!d!2!B{d}B!1!A "em"!5!B!1!EE2 ||
 "em"!2!e2ge "D"!3!fgaf | "em"!4!gfe!1!d {g}!2!e!1!d!2!B!1!d | !2!e2!4!ge "D"!3!fgaf | "em"!4!gfe!1!d !2!B!5!e!2!e2 |
S"em"!2!efge "D"!3!fgaf | "em"!4!gfed {g}!2!e!1!d!2!B!1!d | !5!bg!4!a!2!f !4!gfe!1!d | !5!e!2!B{d}B!1!A !1!B!1!E !3!(3E!2!E!1!E ||
O"Special Ending""em"!2!efge "D"!3!fgaf | "em"!4!gfed !2!e!1!d2!1!d | !5!bz z2 | !5!e!4!d!2!B!1!G {c}!2!A!1!G!3!F!1!D| !2!E4  ||


